X: 3198
T: PERTHSHIRE VOLUNTEERS
Q: "Highland Schottische."
R: Schottische.
%R: shottish
B: James Kerr "Merry Melodies" v.3 p.23 #198
Z: 2016 John Chambers <jc:trillian.mit.edu>
M: C
L: 1/16
K: A
uA2 |\
vE3vA (cde2) c4 A3c | d3B dcBA GB3 B3d |\
c3A (cde2) c4 A3c | dB3 e3d cA3 A2c2 |\
E3A (cde2) c4 A3c | d3B dcBA GB3 B3d |
c3A (cde2) c4 A3c | dB3e3d cA3 A2 |]\
ue2 |\
va3ue agfe a4 (ec3) | d3B dcBA GB3 B3g |\
a3e agfe a4 (ec3) |
d3B dcBA EA3 A2e2 |\
a3e agfe a3ec3A | d3Bc3A GB3 B3d |\
ce3 df3 ea3 g3b | agfe f3g aA3 A2 |]

%%sep 1 1 500
%%sep 1 1 500

